Delta/apps/scalable/facebook.svg

<svg xmlns="http://www.w3.org/2000/svg" xmlns:xlink="http://www.w3.org/1999/xlink" width="192" height="192" viewBox="0 0 192 192">
  <defs>
    <rect id="facebook-a" width="152" height="152" x="0" y="0" rx="10"/>
  </defs>
  <g fill="none" fill-rule="evenodd">
    <rect width="152" height="152" x="20" y="20" fill="#9ABEFF" rx="10"/>
    <g transform="translate(20 20)">
      <mask id="facebook-b" fill="#fff">
        <use xlink:href="#facebook-a"/>
      </mask>
      <use fill="#9ABEFF" xlink:href="#facebook-a"/>
      <rect width="159" height="33" x="-3" y="125" fill="#000" fill-opacity=".25" mask="url(#facebook-b)"/>
    </g>
    <path fill="#FFF" d="M61.7096091,62.009463 C66.2316806,57.7035593 72.6637967,56.249212 78.7314113,56.0679463 C85.1486096,56.0102453 91.5632747,56.0451474 97.980473,56.0476806 C98.0058052,62.8172774 98.0080569,69.5894073 97.9779398,76.3587226 C93.8307842,76.3514045 89.6808139,76.3688555 85.5336584,76.3514045 C82.903899,76.1875898 80.2034911,78.1809491 79.7255577,80.7879096 C79.6625088,85.3175807 79.7027588,89.8497851 79.705292,94.3797377 C85.7878244,94.4047884 91.8703567,94.372138 97.9526076,94.394937 C97.5073246,100.947803 96.6944438,107.470833 95.7408288,113.968532 C90.3681598,114.018915 84.9923946,113.963465 79.6200071,113.996397 C79.5721574,133.323426 79.6450577,152.650454 79.5822903,171.977483 C71.6020979,172.010133 63.6171205,171.962283 55.6372096,172 C55.4860611,152.670438 55.6495942,133.331025 55.5541764,113.99893 C51.6609054,113.958399 47.7653825,114.026796 43.8723929,113.96628 C43.8873108,107.468582 43.8774594,100.971165 43.8797111,94.4757184 C47.7701675,94.4281502 51.6634386,94.4858513 55.5541764,94.4481345 C55.6723932,88.1314204 55.4356782,81.8073881 55.6774596,75.496022 C56.0675748,70.4977059 57.972553,65.4619546 61.7096091,62.009463 L61.7096091,62.009463 Z"/>
  </g>
</svg>

<svg width="192" height="192" version="1.1" viewBox="0 0 192 192" xmlns="http://www.w3.org/2000/svg">
 <rect x="20" y="20" width="152" height="152" ry="10" style="fill:#9abeff;paint-order:stroke fill markers;stroke-width:4.6908"/>
 <path d="m20 145v17c0 5.54 4.46 10 10 10h132c5.54 0 10-4.46 10-10v-17h-152z" style="fill-opacity:.25;fill-rule:evenodd"/>
 <path d="m61.71 62.009c4.5221-4.3059 10.954-5.7603 17.022-5.9415 6.4172-0.0577 12.832-0.0228 19.249-0.02027 0.02533 6.7696 0.02758 13.542-0.0025 20.311-4.1472-0.0073-8.2971 0.01013-12.444-0.0073-2.6298-0.16381-5.3302 1.8295-5.8081 4.4365-0.06305 4.5297-0.0228 9.0619-0.02027 13.592 6.0825 0.02505 12.165-0.0076 18.247 0.0152-0.44528 6.5529-1.2582 13.076-2.2118 19.574-5.3727 0.0504-10.748-5e-3 -16.121 0.0279-0.04785 19.327 0.02505 38.654-0.03772 57.981-7.9802 0.0326-15.965-0.0152-23.945 0.0225-0.15115-19.33 0.01238-38.669-0.08303-58.001-3.8933-0.0405-7.7888 0.0279-11.682-0.0327 0.01492-6.4977 0.0051-12.995 0.0073-19.491 3.8905-0.04757 7.7837 0.01013 11.674-0.02758 0.11822-6.3167-0.1185-12.641 0.12328-18.952 0.39012-4.9983 2.2951-10.034 6.0321-13.487z" style="fill-rule:evenodd;fill:#fff"/>
</svg>
